X: 43110
T: Windy City, The
R: reel
M: 4/4
K: Edorian
BE E2 EFGA|BE E2 B2 AG|FA A2 dcde|fded BAFA|
BE E2 EFGA|BE E2 B2 AG|FA A2 dAFA|BFAF E4:|
eBeg be e2|Bebe gece|dAde fefa|bfaf dfaf|
eBeg be e2|Bebe gece|dAde faaf|gfgf efgf|
eBGB efga|be e2 Bece|dAde fefa|bfaf dfaf|
eBeg be e2|Gebe gece|dAde faaf|gfgf e4|

